X: 104
T:Holly Bush
T:Matt the Trasher
T:Dowds
M:C
L:1/8
K:DMix
|: A2 FA DAFA | ABde fddB | cG ~G2 EG  ~G2 | cedc AGEG |
 A2 FA DAFA | ABde fddB | cGGA cedc | AEGE  DEFG :|
| Adde defg | adde dcAB | cG ~G2 cdeg| agec dcAG|
Adde defg| adde dcAB | ~c3 c cAGc |1 A2 GE D3 G :|2 A2 FE DEFG |]
